!!!OTL: 2035. Die arme Seele vor der Himmelsthuer.
!!!ARE: Europa, Mitteleuropa, Deutschland, Baden, Bodensee
!!!SCT: E2035
!!!TXL: @@DE
!!!YEM: Copyright 1995, estate of Helmut Schaffrath.
**kern	**text
*ICvox	*
*M3/4	*
*k[b-e-a-d-]	*
*A-:	*
!LO:TX:a:t=Mäßig langſam.	!
!LO:TX:a:t=Aus der Gegend am Bodenſee.	!
{4e-	Dort
=1	=1
8fL	o-
8e-J	.
4e-	-ben,
4e-	dort
=2	=2
8fL	o-
8e-J	.
4e-}	-ben
{8a-	vor
8b-	der
=3	=3
4cc	himmli-
4cc	.
8ccL	-ſchen
8ee-J	.
=4	=4
2b-}	Thür,
{8b-L	und
8ccJ	da
=5	=5
8dd-L	ſteht
8b-J	.
8.b-/	ei-
16b-/	-ne
8b-/	ar-
8dd-	-me
=6	=6
8ccL	See-
8a-J	.
4a-}	-le,
{8a-L	ſchaut
8ccJ	.
=7	=7
4b-/	trau-
4a-	-rig
4g	her-
=8	=8
2a-}	-für.
{8b-L	und
8ccJ	da
=9	=9
8dd-L	ſteht
8b-J	.
8.b-/	ei-
16b-/	-ne
8b-/	ar-
8dd-	-me
=10	=10
8ccL	See-
8a-J	.
4a-}	-le,
{8a-L	ſchaut
8ccJ	.
=11	=11
4b-/	trau-
4a-	-rig
4g	her-
=12	=12
2a-}	-für.
==	==
!!!AGN: geistlich, Wallfahrts - Lied
!!!ONB: ESAC (Essen Associative Code) Database: ERK3
!!!AMT: simple triple
!!!AIN: vox
!!!EED: Helmut Schaffrath
!!!EEV: 1.0
!!!GTL: 4. Katholische Lieder: a) Wallfahrtlieder zur Bittwoche und zum Fronleichnamstag.
!!!URL-scan: https://rosdok.uni-rostock.de/mcrviewer/recordIdentifier/rosdok_ppn745177999/iview2/phys_0743.iview2?x=93.05842105618808&y=1178.7651090011932&scale=0.7014306698522891&rotation=0&layout=singlePageLayout
!!!ENC: Anna Maria Matuszewska
!!!EEV: 2025/13/01
*-	*-
